X: 25422
T: March Of The Men Of Devon
R: polka
M: 2/4
K: Dmajor
M:4/4
A>G|FD D>D DF Ad|cA A>A A/B/c/d/ e/f/g/a/|fd dc Bg g>f|e/f/e/d/ c/d/c/B/ A/B/A/G/ F/G/F/E/|
FD D>D D/E/F/G/ A/B/c/d/|cA A>A A/B/c/d/ e/f/g/a/|fd d>c Bg ec|d2 d>c d2||
f>g|af f>d fd f/g/a|ge e>c ec e/f/g/a/|fd d>c Bg g>f|e/f/e/d/ c/d/c/B/ A/B/A/G/ F/G/F/E/|
FD D>D DF Ad|cA A>A A/B/c/d/ e/f/g/a/|fd d>c Bg ec|d2 d>c d2||

